_includes/icons/color-faq.svg

<svg fill="#666" height="50" viewBox="0 0 48 48" width="50" xmlns="http://www.w3.org/2000/svg"><path d="m15 40h23l6 6v-21c0-2.199219-1.800781-4-4-4h-25c-2.199219 0-4 1.800781-4 4v11c0 2.199219 1.800781 4 4 4z" fill="#558b2f"/><path d="m28.800781 32.800781h-3.601562l-.699219 2.097657h-2.199219l3.699219-10h1.898438l3.703125 10h-2.203125zm-3.101562-1.601562h2.5l-1.199219-3.800781z" fill="#1b5e20"/><path d="m33 25h-23l-6 6v-23c0-2.199219 1.800781-4 4-4h25c2.199219 0 4 1.800781 4 4v13c0 2.199219-1.800781 4-4 4z" fill="#8bc34a"/><path d="m25.398438 14.199219c0 1-.199219 1.800781-.5 2.5-.296875.699219-.699219 1.300781-1.296875 1.699219l1.699218 1.300781-1.300781 1.199219-2.199219-1.699219c-.199218 0-.5.101562-.800781.101562-.601562 0-1.199219-.101562-1.800781-.300781-.5-.199219-1-.601562-1.398438-1-.402343-.398437-.699218-1-.902343-1.601562-.199219-.597657-.296875-1.296875-.296875-2.097657v-.402343c0-.796875.097656-1.5.296875-2.097657.203125-.601562.5-1.199218.902343-1.601562.398438-.398438.800782-.800781 1.398438-1 .5-.199219 1.101562-.300781 1.800781-.300781.601563 0 1.199219.101562 1.800781.300781.5.199219 1 .601562 1.398438 1 .402344.402344.699219 1 .902344 1.601562.199218.597657.296875 1.300782.296875 2.097657zm-2.199219-.5c0-1.097656-.199219-1.898438-.597656-2.398438-.402344-.601562-.902344-.800781-1.601563-.800781s-1.300781.300781-1.601562.800781c-.398438.597657-.597657 1.398438-.597657 2.398438v.5c0 .5.097657 1 .199219 1.402344.101563.398437.199219.796875.398438 1 .203125.296875.402343.5.703125.597656.296875.101562.597656.199219.898437.199219.699219 0 1.300781-.296875 1.601563-.796875.398437-.601563.597656-1.402344.597656-2.5z" fill="#fff"/></svg>

<svg xmlns="http://www.w3.org/2000/svg" viewBox="0 0 48 48" width="50" height="50" fill="#666"><path d="M 15 40 L 38 40 L 44 46 L 44 25 C 44 22.800781 42.199219 21 40 21 L 15 21 C 12.800781 21 11 22.800781 11 25 L 11 36 C 11 38.199219 12.800781 40 15 40 Z" fill="#558b2f"/><path d="M 28.800781 32.800781 L 25.199219 32.800781 L 24.5 34.898438 L 22.300781 34.898438 L 26 24.898438 L 27.898438 24.898438 L 31.601563 34.898438 L 29.398438 34.898438 Z M 25.699219 31.199219 L 28.199219 31.199219 L 27 27.398438 Z" fill="#1b5e20"/><path d="M 33 25 L 10 25 L 4 31 L 4 8 C 4 5.800781 5.800781 4 8 4 L 33 4 C 35.199219 4 37 5.800781 37 8 L 37 21 C 37 23.199219 35.199219 25 33 25 Z" fill="#8bc34a"/><path d="M 25.398438 14.199219 C 25.398438 15.199219 25.199219 16 24.898438 16.699219 C 24.601563 17.398438 24.199219 18 23.601563 18.398438 L 25.300781 19.699219 L 24 20.898438 L 21.800781 19.199219 C 21.601563 19.199219 21.300781 19.300781 21 19.300781 C 20.398438 19.300781 19.800781 19.199219 19.199219 19 C 18.699219 18.800781 18.199219 18.398438 17.800781 18 C 17.398438 17.601563 17.101563 17 16.898438 16.398438 C 16.699219 15.800781 16.601563 15.101563 16.601563 14.300781 L 16.601563 13.898438 C 16.601563 13.101563 16.699219 12.398438 16.898438 11.800781 C 17.101563 11.199219 17.398438 10.601563 17.800781 10.199219 C 18.199219 9.800781 18.601563 9.398438 19.199219 9.199219 C 19.699219 9 20.300781 8.898438 21 8.898438 C 21.601563 8.898438 22.199219 9 22.800781 9.199219 C 23.300781 9.398438 23.800781 9.800781 24.199219 10.199219 C 24.601563 10.601563 24.898438 11.199219 25.101563 11.800781 C 25.300781 12.398438 25.398438 13.101563 25.398438 13.898438 Z M 23.199219 13.699219 C 23.199219 12.601563 23 11.800781 22.601563 11.300781 C 22.199219 10.699219 21.699219 10.5 21 10.5 C 20.300781 10.5 19.699219 10.800781 19.398438 11.300781 C 19 11.898438 18.800781 12.699219 18.800781 13.699219 L 18.800781 14.199219 C 18.800781 14.699219 18.898438 15.199219 19 15.601563 C 19.101563 16 19.199219 16.398438 19.398438 16.601563 C 19.601563 16.898438 19.800781 17.101563 20.101563 17.199219 C 20.398438 17.300781 20.699219 17.398438 21 17.398438 C 21.699219 17.398438 22.300781 17.101563 22.601563 16.601563 C 23 16 23.199219 15.199219 23.199219 14.101563 Z" fill="#fff"/></svg>
